X: 127
T: No_53_Little_Girls'_War_Song.krn
%%abc-version 2.0
%%abcx-abcm2ps-target-version 5.9.1 (29 Sep 2008)
%%abc-creator hum2abc beta
%%abcx-conversion-date 2020/08/10 18:54:56
%%humdrum-veritas 175134083
%%humdrum-veritas-data 604008748
%%linebreak <none>
%%barnumbers 0
L: 1/8
M: 3/4
K: F clef=bass
[K:clef=bass][M:3/4]F,F FCF2 ||  
[M:2/4]CB,- B,C | 
B,G, F,F, | 
F,4 ||  
[M:3/4]F,F FCF2 ||  
[M:2/4]CB,- B,C | 
B,G, F,F, | 
F,4 | 
B,B,F,2 ||  
[M:3/4]G,F,/>F,/F,2F,2 ||  
[M:2/4]F,F,F,2 |]  


